X:0964
T:The Mariners.
N:Ye Mariners of England
M:C
L:1/8
Q:1/2=120
I: ||
Z:Jack Campin * www.campin.me.uk * 2009
K:G
g4 |d2e2 c2(BA)| c4    B2 d2 | d2  d2  d2^c2 | d4    A4   |
    B2B2 B2(AG)| A2A2  A2(GF)| BAGF    F2 E2 | D6
 zd|c2d2 B2 c2 | A3 B  A2 d2 | c2  d2  B2 c2 | B4    A4   |z4
A3A|B4   c3  d | e4    c3   B| A4      B3  c | d4    d3  c|B4c3c|B4A4|z4
d3c|B2B2 B2 B2 |(AGAB) A2 A>B| c2  c2  c2 c2 |(BABc) B2c>d|
    e2e2 e2 e2 |(dcde) d2 d>d|(ed)(cB B2)A2 | G4
d3c|B2B2 B2 B2 |(AGAB) A2 A>B| c2  c2  c2 c2 |(BABc) B2c>d|
    e2e2 e2 e2 |(dcde) d2 d>d|(ed)(cB  B2)A2 | G4|]
<end>
<start>
